X:1
T:Mrs. Waller
T:Mrs. Waller
T:Attributed to Carolan by the Thompsons
C:Attributed to Carolan by the Thompsons
%%score 1 2
L:1/8
M:4/4
K:C
V:1 treble-8 
V:2 bass 
V:1
 c'2 c'e' bd'{c'} ba | gd (e/f/g) ec a2 | gf (e/f/e/d/) c2 z2 | d2 z2 e2 z2 | f2 z2 g2 z2 | %5
 g2 a2 (c'bab) | c'2 ba (ga/g/) (fg/f/) | Te4 dd de/d/ | de/d/ e/f/g cc cd/c/ | B/A/c/G/ d2 cEBD | %10
 ACGB, A,AGB | EcdB (g/a/g/f/) (g/a/g/f/) | (e/f/e/d/) (e/f/e/d/) (c/B/c/d/) (c/B/c/d/) | %13
 (e/c/A/c/) e/c/A/c/ d/B/G/B/ d/B/G/B/ | (c/A/F/A/) f/A/F/A/ Gd (c/B/A/G/) | c4 c4 || %16
 [Gg][Ff][Ee][Dd] [Cc][B,B][A,A][G,G] | [A,A][B,B][Cc][Dd] [Ee][Ee]/[Ff]/ [CEGg]2 | %18
 (A/G/A/B/) c/B/c/A/ (B/A/B/c/) d/c/d/B/ | (c/B/c/d/) e/d/e/c/ (d/c/d/e/) f/e/f/d/ | eadg cedc | %21
 BgAf Ge Tdc/B/ | (e/f/g/f/ e)c a2 b2 | c'ebd acgB | Aage feTdc | E8 G8 c8 || %26
V:2
 C4 G,4 | B,2 G,2 C2 C,2 | B,2 C2 z ECE | z FDF z GEG | z AFA z GEG | E2 F2 G2 G,2 | C2 D2 E2 D2 | %7
 CG,E,C, G,2 z2 | G,2 C2 E,2 F,2 | G,2 F,G, E,2 G,2 | F,2 E,2 F,2 G,2 | A,,2 z2 E,2 z2 | %12
 C,2 z2 E,2 z2 | A,2 z2 B,2 z2 | A,2 F,2 G,2 G,2 | C,4 C,4 || G,F,E,D, C,B,,A,,G,, | %17
 A,,B,,C,D, C,2 C,2 | F,2 F,,2 G,2 G,,2 | A,2 C2 B,2 G,2 | C2 B,2 A,2 F,2 | G,2 F,2 G,2 G,,2 | %22
 C,2 z2 F,D,G,G,, | C,2 G,2 F,2 G,2 | F,2 E,2 G,2 G,,2 | C,8 x16 || %26

